X: 41119
T: Trip To Sligo, The
R: jig
M: 6/8
K: Gmajor
|:E2e BGE|D2d AFD|E2e BGE|GFE e2f|
gfe dcB|ABG FED|EFG ABc|BGF E3:|
|:~eeBe gfe|dAd fed|eBe gfe|f/g/af gfe|
f/g/af gfe|dcB AFA|EFG ABc|BGF E3:|

